icons/weather/Storm.svg

<?xml version="1.0" encoding="UTF-8" standalone="no"?>
<svg width="110px" height="89px" viewBox="0 0 110 89" version="1.1" xmlns="http://www.w3.org/2000/svg" xmlns:xlink="http://www.w3.org/1999/xlink">
    <!-- Generator: Sketch 3.7.2 (28276) - http://www.bohemiancoding.com/sketch -->
    <title>Storm</title>
    <desc>Created with Sketch.</desc>
    <defs>
        <linearGradient x1="25.9379725%" y1="20.0204164%" x2="90.765184%" y2="100%" id="linearGradient-1">
            <stop stop-color="#D0D0D0" offset="0%"></stop>
            <stop stop-color="#A3A3A3" offset="100%"></stop>
        </linearGradient>
        <path d="M76.2499693,84.523759 L62,87.2710146 L69.6984581,64.0343999 L69.6763769,64 L83.994475,64 L78.1960112,76.7342067 L78.2005996,76.7410815 L78.2005996,77.0001914 L94,74.0426469 L69.5061807,112.528346 L76.2499693,84.523759 Z" id="path-2"></path>
        <filter x="-50%" y="-50%" width="200%" height="200%" filterUnits="objectBoundingBox" id="filter-3">
            <feOffset dx="0" dy="0" in="SourceAlpha" result="shadowOffsetOuter1"></feOffset>
            <feGaussianBlur stdDeviation="0.5" in="shadowOffsetOuter1" result="shadowBlurOuter1"></feGaussianBlur>
            <feColorMatrix values="0 0 0 0 0.960784314   0 0 0 0 0.650980392   0 0 0 0 0.137254902  0 0 0 1 0" type="matrix" in="shadowBlurOuter1"></feColorMatrix>
        </filter>
        <linearGradient x1="14.0338083%" y1="65.5126707%" x2="58.0484484%" y2="32.5280542%" id="linearGradient-4">
            <stop stop-color="#DAD7D7" offset="0%"></stop>
            <stop stop-color="#D6D3D3" offset="100%"></stop>
        </linearGradient>
        <path d="M63.2808043,73.7679979 L102.097354,73.7679979 C102.099688,73.7679988 102.102023,73.7679993 102.104357,73.7679993 C102.106692,73.7679993 102.109026,73.7679988 102.11136,73.7679979 L102.437051,73.7679979 C102.495811,73.7679979 102.554553,73.7655428 102.613152,73.7607325 C111.208301,73.5148847 118.093577,67.0619805 118.093577,59.1375995 C118.093577,51.0574528 110.93496,44.5071997 102.104357,44.5071997 C101.32863,44.5071997 100.565805,44.5577467 99.8196018,44.6554375 C99.819989,44.6060683 99.820183,44.5566555 99.820183,44.5071997 C99.820183,33.7336708 90.616246,25 79.2626144,25 C69.5263559,25 61.37095,31.4226078 59.2449854,40.0465311 C51.0910372,41.7601711 45,48.565257 45,56.6991995 C45,65.741706 52.5277762,73.1419083 62.0489837,73.7302891 C62.1860096,73.7550225 62.3237184,73.7679979 62.4604203,73.7679979 L63.2659844,73.7679979 C63.2684542,73.7679988 63.2709242,73.7679993 63.2733943,73.7679993 C63.2758644,73.7679993 63.2783344,73.7679988 63.2808043,73.7679979 Z" id="path-5"></path>
        <mask id="mask-6" maskContentUnits="userSpaceOnUse" maskUnits="objectBoundingBox" x="0" y="0" width="73.0935773" height="48.7679993" fill="white">
            <use xlink:href="#path-5"></use>
        </mask>
    </defs>
    <g id="Symbols-(original)" stroke="none" stroke-width="1" fill="none" fill-rule="evenodd">
        <g id="Storm" transform="translate(-9.000000, -25.000000)">
            <g>
                <rect id="Container-Copy" x="0" y="0" width="128" height="128"></rect>
                <path d="M33.8067759,95.1861909 L85.6281752,95.1861909 C85.917365,95.1966646 86.2080094,95.2019509 86.5000008,95.2019509 C98.4845798,95.2019509 108.2,86.2964216 108.2,75.3303343 C108.2,64.3642469 98.4845791,55.4744767 86.5,55.4744767 C85.4472105,55.4744767 84.4119317,55.5430773 83.3992113,55.6756598 C83.3997368,55.6086577 83.4,55.5415964 83.4,55.4744767 C83.4,40.853027 70.9087445,29 55.5,29 C42.2862968,29 31.2180703,37.7165346 28.3327869,49.4206162 C17.2665387,51.7463073 9,60.9819275 9,72.0210247 C9,84.6621448 19.9155119,94.9383545 33.3135626,95.1817759 C33.3604773,95.1847031 33.407269,95.1861909 33.453868,95.1861909 L33.7932262,95.1861909 C33.7954841,95.1861915 33.797742,95.1861918 33.8,95.1861918 C33.802258,95.1861918 33.8045159,95.1861915 33.8067738,95.1861909 Z" id="Rectangle-76-Copy-4" fill="url(#linearGradient-1)"></path>
                <g id="Rectangle-164-Copy">
                    <use fill="black" fill-opacity="1" filter="url(#filter-3)" xlink:href="#path-2"></use>
                    <use fill="#F6B44B" fill-rule="evenodd" xlink:href="#path-2"></use>
                </g>
                <use id="Small-grey-cloud-Copy-2" stroke-opacity="0.32" stroke="#979797" mask="url(#mask-6)" stroke-width="0.2" fill="url(#linearGradient-4)" xlink:href="#path-5"></use>
            </g>
        </g>
    </g>
</svg>

<svg width="110" height="89" viewBox="0 0 110 89" xmlns="http://www.w3.org/2000/svg" xmlns:xlink="http://www.w3.org/1999/xlink"><title>Storm</title><defs><linearGradient x1="25.938%" y1="20.02%" x2="90.765%" y2="100%" id="b"><stop stop-color="#D0D0D0" offset="0%"/><stop stop-color="#A3A3A3" offset="100%"/></linearGradient><path d="M76.25 84.524L62 87.27l7.698-23.237-.022-.034h14.318l-5.798 12.734.005.007v.26L94 74.042l-24.494 38.485 6.744-28.004z" id="d"/><filter x="-50%" y="-50%" width="200%" height="200%" filterUnits="objectBoundingBox" id="c"><feOffset in="SourceAlpha" result="shadowOffsetOuter1"/><feGaussianBlur stdDeviation=".5" in="shadowOffsetOuter1" result="shadowBlurOuter1"/><feColorMatrix values="0 0 0 0 0 0 0 0 0 0 0 0 0 0 0 0 0 0 0.5 0" in="shadowBlurOuter1"/></filter><linearGradient x1="14.034%" y1="65.513%" x2="58.048%" y2="32.528%" id="f"><stop stop-color="#DAD7D7" offset="0%"/><stop stop-color="#D6D3D3" offset="100%"/></linearGradient><path d="M63.28 73.768h38.817a18.164 18.164 0 0 0 .014 0h.326c.059 0 .118-.002.176-.007 8.595-.246 15.48-6.699 15.48-14.623 0-8.08-7.158-14.63-15.989-14.63-.775 0-1.538.05-2.284.147v-.148C99.82 33.734 90.616 25 79.263 25c-9.737 0-17.892 6.423-20.018 15.047C51.091 41.76 45 48.565 45 56.699c0 9.043 7.528 16.443 17.049 17.031.137.025.275.038.411.038h.806a20.335 20.335 0 0 0 .015 0z" id="a"/><mask id="e" x="0" y="0" width="73.094" height="48.768" fill="#fff"><use xlink:href="#a"/></mask></defs><g transform="translate(-9 -25)" fill="none" fill-rule="evenodd"><path d="M0 0h128v128H0z"/><path d="M33.807 95.186h51.821c.29.01.58.016.872.016 11.985 0 21.7-8.906 21.7-19.872s-9.715-19.856-21.7-19.856c-1.053 0-2.088.07-3.1.202v-.202C83.4 40.853 70.909 29 55.5 29c-13.214 0-24.282 8.717-27.167 20.42C17.267 51.747 9 60.983 9 72.022c0 12.641 10.916 22.917 24.314 23.16.046.004.093.005.14.005h.34a25.49 25.49 0 0 0 .013 0z" fill="url(#b)"/><use fill="#000" filter="url(#c)" xlink:href="#d"/><use fill="#FABF5E" xlink:href="#d"/><use stroke-opacity=".32" stroke="#979797" mask="url(#e)" stroke-width=".2" fill="url(#f)" xlink:href="#a"/></g></svg>
